assets/svg/icon_block_copy_blue.svg

<svg width="24" height="24" viewBox="0 0 24 24" fill="none" xmlns="http://www.w3.org/2000/svg">
<path d="M15.5 17.4V19.2C15.5 19.6774 15.3156 20.1352 14.9874 20.4728C14.6592 20.8104 14.2141 21 13.75 21H6.75C6.28587 21 5.84075 20.8104 5.51256 20.4728C5.18437 20.1352 5 19.6774 5 19.2V9.3C5 8.82261 5.18437 8.36477 5.51256 8.02721C5.84075 7.68964 6.28587 7.5 6.75 7.5H8.5M8.5 4.8V15.6C8.5 16.0774 8.68437 16.5352 9.01256 16.8728C9.34075 17.2104 9.78587 17.4 10.25 17.4H17.25C17.7141 17.4 18.1592 17.2104 18.4874 16.8728C18.8156 16.5352 19 16.0774 19 15.6V7.7178C19 7.478 18.9534 7.24063 18.8629 7.01962C18.7724 6.79861 18.64 6.59842 18.4733 6.4308L15.5726 3.513C15.2457 3.18419 14.8066 3.00006 14.3494 3H10.25C9.78587 3 9.34075 3.18964 9.01256 3.52721C8.68437 3.86477 8.5 4.32261 8.5 4.8Z" stroke="#0166FF" stroke-width="1.5" stroke-linecap="round" stroke-linejoin="round"/>
</svg>

<svg xmlns="http://www.w3.org/2000/svg" width="24" height="24" fill="none"><path stroke="#0166FF" stroke-linecap="round" stroke-linejoin="round" stroke-width="1.5" d="M15.5 17.4v1.8c0 .477-.184.935-.513 1.273A1.73 1.73 0 0 1 13.75 21h-7c-.464 0-.91-.19-1.237-.527A1.83 1.83 0 0 1 5 19.2V9.3c0-.477.184-.935.513-1.273A1.73 1.73 0 0 1 6.75 7.5H8.5m0-2.7v10.8c0 .477.184.935.513 1.273.328.337.773.527 1.237.527h7c.464 0 .91-.19 1.237-.527.329-.338.513-.796.513-1.273V7.718c0-.24-.047-.477-.137-.698a1.8 1.8 0 0 0-.39-.59l-2.9-2.917A1.73 1.73 0 0 0 14.349 3H10.25c-.464 0-.91.19-1.237.527A1.83 1.83 0 0 0 8.5 4.8"/></svg>
